src/lib/packages/icons/src/assets/line/pinterest-p.svg

<svg width="24" height="24" viewBox="0 0 24 24" fill="none" xmlns="http://www.w3.org/2000/svg">
<path d="M19 9.37022C19 13.1702 16.62 16.2302 13.31 16.2302C12.2 16.2302 11.16 15.6502 10.8 14.9602C10.8 14.9602 10.25 17.0702 10.12 17.5802C9.87 18.5402 8.76998 20.4202 8.09998 20.9902L8.01001 20.2102C7.91001 19.3402 7.82999 17.9902 8.04999 17.0402C8.24999 16.1802 9.34003 11.5602 9.34003 11.5602C9.34003 11.5602 9.01001 10.9002 9.01001 9.92023C9.01001 8.39023 9.88999 7.24023 10.99 7.24023C11.93 7.24023 12.38 7.95022 12.38 8.79022C12.38 9.74022 11.78 11.1502 11.47 12.4602C11.21 13.5602 12.02 14.4502 13.09 14.4502C15.04 14.4502 16.54 12.3802 16.54 9.40022C16.54 6.76022 14.65 4.91023 11.96 4.91023C8.84002 4.91023 7.01001 7.26023 7.01001 9.70023C7.01001 10.6502 7.37002 11.6702 7.83002 12.2202C7.92002 12.3302 7.92997 12.4302 7.90997 12.5402C7.82997 12.8902 7.63999 13.6402 7.60999 13.7902C7.55999 13.9902 7.44999 14.0302 7.23999 13.9402C5.86999 13.3002 5.01001 11.2802 5.01001 9.67023C5.01001 6.19023 7.52 2.99023 12.25 2.99023C16.05 2.99023 19.01 5.72023 19.01 9.36023L19 9.37022Z" fill="currentColor"/>
</svg>

<svg xmlns="http://www.w3.org/2000/svg" width="24" height="24" fill="none"><path fill="currentColor" d="M19 9.37c0 3.8-2.38 6.86-5.69 6.86-1.11 0-2.15-.58-2.51-1.27 0 0-.55 2.11-.68 2.62-.25.96-1.35 2.84-2.02 3.41l-.09-.78c-.1-.87-.18-2.22.04-3.17.2-.86 1.29-5.48 1.29-5.48s-.33-.66-.33-1.64c0-1.53.88-2.68 1.98-2.68.94 0 1.39.71 1.39 1.55 0 .95-.6 2.36-.91 3.67-.26 1.1.55 1.99 1.62 1.99 1.95 0 3.45-2.07 3.45-5.05 0-2.64-1.89-4.49-4.58-4.49-3.12 0-4.95 2.35-4.95 4.79 0 .95.36 1.97.82 2.52.09.11.1.21.08.32-.08.35-.27 1.1-.3 1.25-.05.2-.16.24-.37.15-1.37-.64-2.23-2.66-2.23-4.27 0-3.48 2.51-6.68 7.24-6.68 3.8 0 6.76 2.73 6.76 6.37l-.01.01Z"/></svg>
